X: 15529
T: Glentaun, The
R: reel
M: 4/4
K: Gmajor
|:DGBG AGBG|DGBG AEE2|DGBG A2 Bc|1 d2 ed BGGE:|2 d2 ed BGG2||
Bdd^c d2ef|g2fg eAA2|Bdd^c dege|dBAc BGGA|
Bdd^c d2ef|g2fg eAA2|Bdef g2 ge|dBAc BGGE||

